deployments/warp_routes/stBTC/logo.svg

<svg width="128" height="128" viewBox="0 0 128 128" fill="none" xmlns="http://www.w3.org/2000/svg">
<mask id="mask0_1236_77022" style="mask-type:luminance" maskUnits="userSpaceOnUse" x="0" y="0" width="128" height="127">
<path d="M127.555 0.111328H0.9375V126.729H127.555V0.111328Z" fill="white"/>
</mask>
<g mask="url(#mask0_1236_77022)">
<mask id="mask1_1236_77022" style="mask-type:luminance" maskUnits="userSpaceOnUse" x="0" y="0" width="128" height="127">
<path d="M127.547 0.112793H0.929688V126.73H127.547V0.112793Z" fill="white"/>
</mask>
<g mask="url(#mask1_1236_77022)">
<path d="M64.2386 126.73C99.2027 126.73 127.547 98.386 127.547 63.4216C127.547 28.4571 99.2027 0.112793 64.2386 0.112793C29.2741 0.112793 0.929688 28.4571 0.929688 63.4216C0.929688 98.386 29.2741 126.73 64.2386 126.73Z" fill="#0C1013"/>
<path fill-rule="evenodd" clip-rule="evenodd" d="M64.2428 113.278C91.7773 113.278 114.099 90.957 114.099 63.4225C114.099 35.888 91.7773 13.5669 64.2428 13.5669C36.7083 13.5669 14.3872 35.888 14.3872 63.4225C14.3872 90.957 36.7083 113.278 64.2428 113.278ZM64.2428 118.818C94.8369 118.818 119.638 94.0166 119.638 63.4225C119.638 32.8287 94.8369 8.02734 64.2428 8.02734C33.649 8.02734 8.84766 32.8287 8.84766 63.4225C8.84766 94.0166 33.649 118.818 64.2428 118.818Z" fill="#FC6521"/>
<path d="M82.8026 44.5023C79.9843 37.9559 73.4927 36.5678 65.5414 37.9216L62.9918 27.8105L56.9701 29.4043L59.4861 39.4811C57.9092 39.8924 56.2825 40.2352 54.6721 40.6979L52.156 30.6725L46.134 32.2663L48.6836 42.3773C47.392 42.7544 36.5391 45.5992 36.5391 45.5992L38.1997 52.1795C38.1997 52.1795 42.6281 50.9113 42.5778 51.0143C45.0268 50.3634 46.1842 51.6142 46.7211 52.7969L53.7325 80.5078C53.8164 81.313 53.6824 82.684 51.9879 83.147C52.0888 83.1984 47.6101 84.2949 47.6101 84.2949L48.2642 91.9726C48.2642 91.9726 59.0166 89.1619 60.4254 88.8022L63.0085 99.0331L69.0309 97.4395L66.4476 87.1399C68.108 86.7457 69.7184 86.3342 71.2783 85.9231L73.8448 96.1714L79.8665 94.5772L77.2837 84.3638C86.5594 82.0673 93.1015 76.0861 91.7598 66.9524C90.904 61.4508 85.0162 56.9268 80.1184 56.4129C83.1378 53.6882 84.6642 49.7121 82.8026 44.5023ZM79.9002 68.6147C81.0912 77.6628 68.796 78.7768 64.72 79.8565L61.1806 66.3182C65.2734 65.2385 77.8876 60.6456 79.9002 68.6147ZM72.4862 50.1917C73.7613 58.229 63.2267 59.1717 59.8383 60.063L56.6179 47.7755C60.0227 46.9016 69.9028 42.7372 72.4862 50.1917Z" fill="white"/>
</g>
</g>
</svg>

<svg xmlns="http://www.w3.org/2000/svg" width="128" height="128" fill="none" viewBox="0 0 128 128"><mask id="a" width="128" height="127" x="0" y="0" maskUnits="userSpaceOnUse" style="mask-type:luminance"><path fill="#fff" d="M127.555.111H.938V126.73h126.617z"/></mask><g mask="url(#a)"><mask id="b" width="128" height="127" x="0" y="0" maskUnits="userSpaceOnUse" style="mask-type:luminance"><path fill="#fff" d="M127.547.113H.93V126.73h126.617z"/></mask><g mask="url(#b)"><path fill="#0C1013" d="M64.239 126.73c34.964 0 63.308-28.344 63.308-63.308 0-34.965-28.344-63.31-63.308-63.31C29.274.113.929 28.458.929 63.423c0 34.964 28.345 63.308 63.31 63.308"/><path fill="#FC6521" fill-rule="evenodd" d="M64.243 113.278c27.534 0 49.856-22.321 49.856-49.856 0-27.534-22.322-49.855-49.856-49.855S14.387 35.888 14.387 63.423c0 27.534 22.321 49.855 49.856 49.855m0 5.54c30.594 0 55.395-24.801 55.395-55.395S94.837 8.026 64.243 8.026 8.848 32.83 8.848 63.423s24.801 55.395 55.395 55.395" clip-rule="evenodd"/><path fill="#fff" d="M82.803 44.502c-2.819-6.546-9.31-7.934-17.262-6.58l-2.55-10.111-6.02 1.593 2.515 10.077c-1.577.411-3.203.754-4.814 1.217l-2.516-10.026-6.022 1.594 2.55 10.111c-1.292.377-12.145 3.222-12.145 3.222l1.66 6.58s4.43-1.268 4.379-1.165c2.449-.65 3.606.6 4.143 1.783l7.012 27.71c.083.806-.05 2.177-1.745 2.64.1.051-4.378 1.148-4.378 1.148l.654 7.678s10.753-2.811 12.161-3.17l2.584 10.23 6.022-1.594-2.583-10.3c1.66-.393 3.27-.805 4.83-1.216l2.567 10.248 6.022-1.594-2.583-10.213c9.275-2.297 15.817-8.278 14.476-17.412-.856-5.501-6.744-10.025-11.642-10.54 3.02-2.724 4.546-6.7 2.685-11.91M79.9 68.615c1.191 9.048-11.104 10.162-15.18 11.242l-3.54-13.539c4.093-1.08 16.708-5.672 18.72 2.297m-7.414-18.423c1.275 8.037-9.26 8.98-12.648 9.871l-3.22-12.288c3.405-.873 13.285-5.038 15.868 2.417"/></g></g></svg>
